casedrop/img/bonus/icons/time.svg

<svg width="51" height="51" viewBox="0 0 51 51" fill="none" xmlns="http://www.w3.org/2000/svg">
<path d="M25.5 5.57812C14.0553 5.57812 4.78125 14.8538 4.78125 26.2969C4.78125 37.74 14.0553 47.0156 25.5 47.0156C36.9415 47.0156 46.2188 37.74 46.2188 26.2969C46.2188 14.8538 36.9431 5.57812 25.5 5.57812ZM25.3327 43.0743C16.0905 43.0743 8.59828 35.5821 8.59828 26.3399C8.59828 17.0978 16.0905 9.60553 25.3327 9.60553C34.5732 9.60553 42.067 17.0978 42.067 26.3399C42.067 35.5821 34.5732 43.0743 25.3327 43.0743ZM30.1697 27.3025H25.4203V19.2828C25.4203 18.4126 24.7143 17.705 23.8441 17.705C22.9739 17.705 22.2663 18.411 22.2663 19.2828V28.8788C22.2663 29.7505 22.9723 30.455 23.8441 30.455H30.1697C31.0415 30.455 31.7475 29.7505 31.7475 28.8788C31.7475 28.0086 31.0415 27.3025 30.1697 27.3025Z" fill="#2B59FF"/>
</svg>

<svg width="51" height="51" fill="none" xmlns="http://www.w3.org/2000/svg"><path d="M25.5 5.578c-11.445 0-20.719 9.276-20.719 20.719 0 11.443 9.274 20.719 20.719 20.719 11.441 0 20.719-9.276 20.719-20.72 0-11.442-9.276-20.718-20.719-20.718zm-.167 37.496c-9.242 0-16.735-7.492-16.735-16.734S16.09 9.606 25.333 9.606c9.24 0 16.734 7.492 16.734 16.734s-7.494 16.734-16.734 16.734zm4.837-15.771h-4.75v-8.02a1.578 1.578 0 00-3.154 0v9.596c0 .871.706 1.576 1.578 1.576h6.326a1.576 1.576 0 100-3.152z" fill="#2B59FF"/></svg>
